6. High pass/src/images/svg/search.svg

<svg fill="none" height="25" viewBox="0 0 25 25" width="25" xmlns="http://www.w3.org/2000/svg"><path d="m24.9113 22.8136-5.0577-4.4563c1.4874-1.981 2.2921-4.403 2.2921-6.9505 0-3.04943-1.1553-5.90873-3.2444-8.06461-2.089-2.15588-4.872-3.34219-7.8285-3.34219-2.95641 0-5.73938 1.19011-7.82846 3.34219-2.09277 2.15208-3.24434 5.01518-3.24434 8.06461 0 3.0456 1.15527 5.9125 3.24434 8.0646 2.08908 2.1559 4.86836 3.3422 7.82846 3.3422 2.473 0 4.8204-.8289 6.7434-2.3574l5.0577 4.4524c.0281.029.0615.052.0982.0676.0367.0157.0761.0238.1159.0238.0397 0 .0791-.0081.1158-.0238.0368-.0156.0701-.0386.0982-.0676l1.6093-1.654c.0281-.0289.0504-.0633.0656-.1011.0153-.0379.0231-.0784.0231-.1194s-.0078-.0815-.0231-.1194c-.0152-.0378-.0375-.0722-.0656-.1011zm-7.992-5.384c-1.565 1.6083-3.6393 2.4942-5.8465 2.4942-2.20715 0-4.28146-.8859-5.84642-2.4942-1.56127-1.6122-2.42126-3.7491-2.42126-6.0228 0-2.27377.85999-4.41444 2.42126-6.0228 1.56496-1.60835 3.63927-2.49428 5.84642-2.49428 2.2072 0 4.2852.88212 5.8465 2.49428s2.4213 3.74903 2.4213 6.0228c0 2.2737-.86 4.4144-2.4213 6.0228z" fill="#fff"/></svg>

<svg width="25" height="25" viewBox="0 0 25 25" fill="none" xmlns="http://www.w3.org/2000/svg">
<path d="M24.9113 22.8136L19.8536 18.3573C21.341 16.3763 22.1457 13.9543 22.1457 11.4068C22.1457 8.35737 20.9904 5.49807 18.9013 3.34219C16.8123 1.18631 14.0293 0 11.0728 0C8.11639 0 5.33342 1.19011 3.24434 3.34219C1.15157 5.49427 0 8.35737 0 11.4068C0 14.4524 1.15527 17.3193 3.24434 19.4714C5.33342 21.6273 8.1127 22.8136 11.0728 22.8136C13.5458 22.8136 15.8932 21.9847 17.8162 20.4562L22.8739 24.9086C22.902 24.9376 22.9354 24.9606 22.9721 24.9762C23.0088 24.9919 23.0482 25 23.088 25C23.1277 25 23.1671 24.9919 23.2038 24.9762C23.2406 24.9606 23.2739 24.9376 23.302 24.9086L24.9113 23.2546C24.9394 23.2257 24.9617 23.1913 24.9769 23.1535C24.9922 23.1156 25 23.0751 25 23.0341C25 22.9931 24.9922 22.9526 24.9769 22.9147C24.9617 22.8769 24.9394 22.8425 24.9113 22.8136ZM16.9193 17.4296C15.3543 19.0379 13.28 19.9238 11.0728 19.9238C8.86565 19.9238 6.79134 19.0379 5.22638 17.4296C3.66511 15.8174 2.80512 13.6805 2.80512 11.4068C2.80512 9.13303 3.66511 6.99236 5.22638 5.384C6.79134 3.77565 8.86565 2.88972 11.0728 2.88972C13.28 2.88972 15.358 3.77184 16.9193 5.384C18.4806 6.99616 19.3406 9.13303 19.3406 11.4068C19.3406 13.6805 18.4806 15.8212 16.9193 17.4296Z" fill="white"/>
</svg>
